icons/LockClosed_2_filled.svg

<svg width="24" height="24" viewBox="0 0 24 24" fill="none" xmlns="http://www.w3.org/2000/svg">
<path fill-rule="evenodd" clip-rule="evenodd" d="M7.25,7c0,-2.62335 2.12665,-4.75 4.75,-4.75c2.6234,0 4.75,2.12665 4.75,4.75v2.25h0.25c1.5188,0 2.75,1.2312 2.75,2.75v7c0,1.5188 -1.2312,2.75 -2.75,2.75h-10c-1.51878,0 -2.75,-1.2312 -2.75,-2.75v-7c0,-1.5188 1.23122,-2.75 2.75,-2.75h0.25zM12,3.75c-1.7949,0 -3.25,1.45507 -3.25,3.25v2.25h6.5v-2.25c0,-1.79493 -1.4551,-3.25 -3.25,-3.25zM12,13.75c-0.9665,0 -1.75,0.7835 -1.75,1.75c0,0.9665 0.7835,1.75 1.75,1.75c0.9665,0 1.75,-0.7835 1.75,-1.75c0,-0.9665 -0.7835,-1.75 -1.75,-1.75z" fill="#002B51"/>
</svg>

<svg width="24" height="24" viewBox="0 0 24 24" fill="none" xmlns="http://www.w3.org/2000/svg">
<path fill-rule="evenodd" clip-rule="evenodd" d="M7.25 7C7.25 4.37665 9.37665 2.25 12 2.25C14.6234 2.25 16.75 4.37665 16.75 7V9.25H17C18.5188 9.25 19.75 10.4812 19.75 12V19C19.75 20.5188 18.5188 21.75 17 21.75H7C5.48122 21.75 4.25 20.5188 4.25 19V12C4.25 10.4812 5.48122 9.25 7 9.25H7.25V7ZM15.25 7V9.25H8.75V7C8.75 5.20507 10.2051 3.75 12 3.75C13.7949 3.75 15.25 5.20507 15.25 7ZM12 13.75C11.0335 13.75 10.25 14.5335 10.25 15.5C10.25 16.4665 11.0335 17.25 12 17.25C12.9665 17.25 13.75 16.4665 13.75 15.5C13.75 14.5335 12.9665 13.75 12 13.75Z" fill="#002B51"/>
</svg>
